X: 1
T:Hoedown Polka
M:2/4
L:1/16
S:Devil's Box Vol 14 #1   3/80
N:Based on the version by Tommy Jackson
Z:Trascribed by Frank Maloy
K:D
fg|"D"agab afde|fefg fedc|"G"Bcde dBAG|"D"FAA2AB A2dc|!
"G"BcdB "D"AFAd|"G"BcdB "D"AFAd|"G"Bcde "A7"fdef|"D"d3f3ef d2f2:|!
|:K:A e2|"A"eceg abaf|eceg a2ea|"E7"gbge fede|"A"(3fgf e2 e2cd|!
eceg abaf|eceg a2ea|"E7"gbge fede|"A"c2a2c2a2 c2a2:|!
